X: 27145
T: Miss McLeod's
R: reel
M: 4/4
K: Amajor
|:A3c e2 ce|fecf ecBc|A3c e2cB|AFAF EAcB|
A3c e2 ce|fecB ABce|fedc defa|afec BAcB:|

